Yaru++/actions/16/document-revert-symbolic-rtl.svg

<svg height="16" width="16" xmlns="http://www.w3.org/2000/svg">
  <g fill="#808080">
    <path d="m8 3 .001 5c.76-.348 1.535-.737 2.323-1.166a44.09 44.09 0 0 0 2.259-1.334 51.555 51.555 0 0 0 -2.26-1.32 43.088 43.088 0 0 0 -2.323-1.18z"/>
    <path d="m4.5 5c-1.93 0-3.5 1.57-3.5 3.5s1.57 3.5 3.5 3.5h10.5v-1h-10.5a2.484 2.484 0 0 1 -2.5-2.5c0-1.394 1.106-2.5 2.5-2.5h4.5v-1h-.5z"/>
  </g>
</svg>

<svg xmlns="http://www.w3.org/2000/svg" width="16" height="16">
 <g fill="#808080">
  <path d="M8 3l.001 5c.76-.348 1.535-.737 2.323-1.166A44.09 44.09 0 0 0 12.583 5.5a51.555 51.555 0 0 0-2.26-1.32A43.088 43.088 0 0 0 8 3z" overflow="visible"/>
  <path d="M4.5 5C2.57 5 1 6.57 1 8.5S2.57 12 4.5 12H15v-1H4.5A2.484 2.484 0 0 1 2 8.5C2 7.106 3.106 6 4.5 6H9V5h-.5z" font-family="sans-serif" font-weight="400" overflow="visible"/>
 </g>
</svg>
